public/icons/gitlab.svg

<svg width="86" height="19" viewBox="0 0 86 19" fill="none" xmlns="http://www.w3.org/2000/svg">
<path d="M19.2152 7.56684L19.1894 7.49758L16.5768 0.657845C16.5239 0.523545 16.4299 0.409617 16.3082 0.332555C16.2174 0.274222 16.1142 0.238048 16.007 0.226932C15.8998 0.215816 15.7915 0.230068 15.6907 0.268545C15.5899 0.307022 15.4996 0.368655 15.4268 0.448502C15.3541 0.52835 15.301 0.624191 15.2718 0.728345L13.5083 6.14695H6.36703L4.60358 0.728345C4.57416 0.624347 4.52094 0.528686 4.44816 0.448991C4.37538 0.369296 4.28505 0.307773 4.18438 0.269327C4.08371 0.230882 3.97548 0.216577 3.86832 0.227555C3.76117 0.238532 3.65805 0.274488 3.56719 0.332555C3.44551 0.409617 3.35142 0.523545 3.29854 0.657845L0.687252 7.49882L0.66014 7.56684C0.284191 8.55299 0.237875 9.63507 0.528175 10.6499C0.818476 11.6648 1.42966 12.5574 2.26956 13.1932L2.27942 13.2007L2.3016 13.218L6.27584 16.2074L8.24756 17.7028L9.44537 18.6118C9.58592 18.7184 9.75724 18.776 9.93337 18.776C10.1095 18.776 10.2808 18.7184 10.4214 18.6118L11.6192 17.7028L13.5909 16.2074L17.5935 13.2007L17.6046 13.192C18.4444 12.5564 19.0557 11.6641 19.3462 10.6495C19.6367 9.63486 19.5908 8.55296 19.2152 7.56684Z" fill="#E24329"/>
<path d="M19.2159 7.56682L19.19 7.49756C17.9171 7.75972 16.7178 8.30119 15.6779 9.08319L9.94141 13.4369L13.594 16.2074L17.5966 13.2006L17.6077 13.192C18.4471 12.5561 19.0579 11.6636 19.3479 10.649C19.638 9.63441 19.5917 8.55268 19.2159 7.56682Z" fill="#FC6D26"/>
<path d="M6.27734 16.2074L8.24906 17.7028L9.44688 18.6118C9.58742 18.7184 9.75875 18.776 9.93488 18.776C10.111 18.776 10.2823 18.7184 10.4229 18.6118L11.6207 17.7028L13.5924 16.2074L9.93981 13.4369L6.27734 16.2074Z" fill="#FCA326"/>
<path d="M4.19814 9.08317C3.15862 8.30157 1.95967 7.7605 0.687252 7.49878L0.66014 7.5668C0.284191 8.55295 0.237875 9.63503 0.528175 10.6499C0.818476 11.6648 1.42966 12.5574 2.26956 13.1932L2.27941 13.2006L2.3016 13.2179L6.27584 16.2074L9.93091 13.4369L4.19814 9.08317Z" fill="#FC6D26"/>
<path d="M34.8546 7.21317H37.6618C37.1935 4.21753 34.6094 2.13098 31.2463 2.13098C27.2672 2.13098 24.2812 5.06724 24.2812 9.98493C24.2812 14.8148 27.1328 17.8104 31.3277 17.8104C35.0924 17.8104 37.7875 15.38 37.7875 11.4456V9.61264H31.6173V11.7734H35.122C35.0776 13.9502 33.6297 15.3281 31.3425 15.3281C28.7965 15.3281 27.0515 13.4135 27.0515 9.95524C27.0515 6.5193 28.8261 4.61209 31.2833 4.61209C33.117 4.61209 34.3715 5.59538 34.8546 7.21317Z" fill="white"/>
<path d="M39.6447 17.6014H42.3324V6.16057H39.6447V17.6014ZM41.0003 4.34242C41.8543 4.34242 42.5518 3.68565 42.5518 2.88171C42.5518 2.07776 41.8543 1.41357 41.0003 1.41357C40.1463 1.41357 39.4414 2.0691 39.4414 2.88171C39.4414 3.69431 40.134 4.34242 40.9954 4.34242H41.0003Z" fill="white"/>
<path d="M50.3802 6.16049H48.13V3.41223H45.4423V6.16049H43.8242V8.24705H45.4423V14.6118C45.4275 16.7652 46.9876 17.8276 49.0061 17.7645C49.5439 17.7538 50.0771 17.6634 50.5884 17.4962L50.1349 15.3861C49.8781 15.453 49.6141 15.4883 49.3487 15.4912C48.6722 15.4912 48.13 15.2525 48.13 14.1641V8.24086H50.3802V6.16049Z" fill="white"/>
<path d="M52.4609 17.6014H61.9129V15.2835H55.2164V2.33875H52.4609V17.6014Z" fill="white"/>
<path d="M67.0611 17.8327C68.8504 17.8327 69.9188 16.9904 70.4093 16.0293H70.498V17.6014H73.0859V9.94038C73.0859 6.91506 70.6287 6.00598 68.4524 6.00598C66.0543 6.00598 64.2132 7.07832 63.6192 9.16488L66.1295 9.52356C66.3956 8.74064 67.1535 8.07027 68.4709 8.07027C69.7192 8.07027 70.4019 8.71096 70.4019 9.83648V9.88101C70.4019 10.6553 69.5923 10.6936 67.5799 10.9088C65.3679 11.1475 63.252 11.8105 63.252 14.3893C63.2446 16.6404 64.8848 17.8327 67.0611 17.8327ZM67.9447 15.8537C66.8233 15.8537 66.021 15.3392 66.021 14.3485C66.021 13.312 66.9194 12.8804 68.116 12.7084C68.8221 12.612 70.2331 12.4326 70.5806 12.1506V13.4988C70.588 14.769 69.5627 15.85 67.9447 15.85V15.8537Z" fill="white"/>
<path d="M75.0664 17.6014H77.7097V15.7981H77.865C78.2889 16.6329 79.1725 17.803 81.1331 17.803C83.8208 17.803 85.8332 15.6632 85.8332 11.8934C85.8332 8.07769 83.7617 6.00598 81.1257 6.00598C79.1134 6.00598 78.2741 7.22056 77.865 8.04801H77.7516V2.33875H75.0664V17.6014ZM77.7023 11.8785C77.7023 9.65219 78.6525 8.21869 80.3826 8.21869C82.172 8.21869 83.0938 9.74619 83.0938 11.8785C83.0938 14.0108 82.1584 15.589 80.3826 15.589C78.6672 15.589 77.7023 14.0986 77.7023 11.8785Z" fill="white"/>
</svg>

<svg width="86" height="19" fill="none" xmlns="http://www.w3.org/2000/svg"><path d="m19.215 7.567-.026-.07-2.612-6.84a.689.689 0 0 0-1.305.07l-1.764 5.42H6.367L4.604.728a.695.695 0 0 0-.736-.5.69.69 0 0 0-.57.43l-2.61 6.84-.028.069a4.885 4.885 0 0 0 1.61 5.626l.01.008.022.017 3.974 2.99 1.972 1.495 1.197.909a.807.807 0 0 0 .976 0l1.198-.91 1.972-1.495 4.002-3.006.012-.009a4.885 4.885 0 0 0 1.61-5.625Z" fill="#E24329"/><path d="m19.216 7.567-.026-.07a8.796 8.796 0 0 0-3.512 1.586L9.94 13.437l3.653 2.77 4.003-3.006.01-.009a4.885 4.885 0 0 0 1.608-5.625Z" fill="#FC6D26"/><path d="m6.277 16.207 1.972 1.496 1.198.909a.807.807 0 0 0 .976 0l1.198-.91 1.971-1.495-3.652-2.77-3.663 2.77Z" fill="#FCA326"/><path d="M4.198 9.083A8.788 8.788 0 0 0 .688 7.5l-.028.068a4.885 4.885 0 0 0 1.61 5.626l.01.008.022.017 3.974 2.99 3.655-2.771-5.733-4.354Z" fill="#FC6D26"/><path d="M34.855 7.213h2.807c-.468-2.995-3.053-5.082-6.416-5.082-3.979 0-6.965 2.936-6.965 7.854 0 4.83 2.852 7.825 7.047 7.825 3.764 0 6.46-2.43 6.46-6.364V9.613h-6.17v2.16h3.504c-.044 2.177-1.492 3.555-3.78 3.555-2.545 0-4.29-1.914-4.29-5.373 0-3.436 1.774-5.343 4.231-5.343 1.834 0 3.088.983 3.572 2.601ZM39.645 17.601h2.687V6.161h-2.687V17.6ZM41 4.342c.854 0 1.552-.656 1.552-1.46 0-.804-.698-1.468-1.552-1.468-.854 0-1.559.655-1.559 1.468 0 .812.693 1.46 1.554 1.46H41ZM50.38 6.16h-2.25V3.412h-2.688V6.16h-1.618v2.087h1.618v6.365c-.014 2.153 1.546 3.216 3.564 3.153a5.439 5.439 0 0 0 1.582-.269l-.453-2.11a3.26 3.26 0 0 1-.786.105c-.677 0-1.219-.239-1.219-1.327V8.241h2.25V6.16ZM52.46 17.601h9.453v-2.317h-6.697V2.338h-2.755V17.6ZM67.061 17.833c1.79 0 2.858-.843 3.348-1.804h.089v1.572h2.588v-7.66c0-3.026-2.457-3.935-4.634-3.935-2.398 0-4.239 1.072-4.833 3.159l2.51.359c.267-.783 1.024-1.454 2.342-1.454 1.248 0 1.93.641 1.93 1.766v.045c0 .774-.809.813-2.821 1.028-2.212.239-4.328.901-4.328 3.48-.007 2.251 1.633 3.444 3.81 3.444Zm.884-1.98c-1.122 0-1.924-.514-1.924-1.505 0-1.036.898-1.468 2.095-1.64.706-.096 2.117-.275 2.465-.557v1.348c.007 1.27-1.018 2.351-2.636 2.351v.004ZM75.066 17.601h2.644v-1.803h.155c.424.835 1.308 2.005 3.268 2.005 2.688 0 4.7-2.14 4.7-5.91 0-3.815-2.071-5.887-4.707-5.887-2.013 0-2.852 1.215-3.261 2.042h-.113v-5.71h-2.686v15.263Zm2.636-5.722c0-2.227.95-3.66 2.68-3.66 1.79 0 2.712 1.527 2.712 3.66 0 2.132-.936 3.71-2.711 3.71-1.716 0-2.68-1.49-2.68-3.71Z" fill="#fff"/></svg>
